X:150
T:Tombigbee Waltz
S:Jim Coon to CoMandoList TOW
R:Waltz
C:trad
M:3/4
L:1/4
K:G
B/A/|:"G"GBB|"G"d2B/A/|GBB|d2B|!
"Am"BAA|ABd|1"C"e2d|"D7"B>c B/A/:|2"D7"edF|"G"G2d||!
|:"G"g2d|g2d|"C"e>d c|"G"d2B|!
"Am"BAA|ABd|1"C"e2d|"D7"B2d:|2"D7"edF|"G"G2||
